X: 42053
T: Waltz From Transtrand
R: waltz
M: 3/4
K: Dmajor
|:A|F3 F Ad|fd AG FA|GF EA Bc|dA AG GF|
F2 DF Ad|fd AG FA|GF EA Bc|d2 dc d:|
|:A|G3 E GB|BA FA df|ag ec eg|gf fd dA|
GF EG GB|A2 FA df|ag eg fe|d2 d3:|
|:e|f3 d eg|fd ed cB|A2 AB GA|F2 Fd eb|a2 af ga|fA Bc de|
f2 fd ge|dc ed cB|AB BA GA|F2 Ff ef|
ga gf ec|A2 ^GA fe|d2 dc de|d4- d:|

